X:1813
T:Halling efter Per Myhr
T:med andrastämma
R:Halling
Z:Arr/transkr. Lennart Sohlman
M:2/4
L:1/16
Q:1/4=100
K:Dm
V:1
(e|:a2)(ab) a2(af)|a2(ge) f2(f>g|a2)(ab a2)(af)|[1a2ge f3(g:|[2a2ge f3(e|:!
d2)(df e2)(e^c|A2)(A^c) e2(af)|d2(df) {fg}(fe)(e^c)|A2(A^c) e2(af)|!
d2(df) (fe)(^ce)|[1d4 D3(f:|[2d4 [D4d4]|]!
V:2
(A|:c2)(cd) c2(cA)|F2(FG) A2(A2|c2)(cd c2)(cA)|[1F2FG A3(A:|[2F2FG A3(^c|:
A2)(Ad ^c2)(cA|E2)(EG) A2(fd)|A2(Ad) (d^c)(cA)|E2(EG) A2(fd)|!
A2(Ad) (d^c)(AG)|[1[F4A4][A,3D3](d:|[2[F4D4][A,4D4]|]
(:musicend:)

Understämman till första reprisen kan också varieras så här:

(:music:)
